assets/img/icons/duotone-icons/Devices/Watch#1.svg

<?xml version="1.0" encoding="UTF-8"?>
<svg width="24px" height="24px" viewBox="0 0 24 24" version="1.1" xmlns="http://www.w3.org/2000/svg" xmlns:xlink="http://www.w3.org/1999/xlink">
    <!-- Generator: Sketch 52.2 (67145) - http://www.bohemiancoding.com/sketch -->
    <title>Stockholm-icons / Devices / Watch#1</title>
    <desc>Created with Sketch.</desc>
    <g id="Stockholm-icons-/-Devices-/-Watch#1" stroke="none" stroke-width="1" fill="none" fill-rule="evenodd">
        <rect id="bound" x="0" y="0" width="24" height="24"></rect>
        <path d="M9,8 C8.44771525,8 8,8.44771525 8,9 L8,15 C8,15.5522847 8.44771525,16 9,16 L15,16 C15.5522847,16 16,15.5522847 16,15 L16,9 C16,8.44771525 15.5522847,8 15,8 L9,8 Z M9,6 L15,6 C16.6568542,6 18,7.34314575 18,9 L18,15 C18,16.6568542 16.6568542,18 15,18 L9,18 C7.34314575,18 6,16.6568542 6,15 L6,9 C6,7.34314575 7.34314575,6 9,6 Z" id="Combined-Shape" fill="#335EEA"></path>
        <path d="M9,8 C8.44771525,8 8,8.44771525 8,9 L8,15 C8,15.5522847 8.44771525,16 9,16 L15,16 C15.5522847,16 16,15.5522847 16,15 L16,9 C16,8.44771525 15.5522847,8 15,8 L9,8 Z" id="Rectangle-36" fill="#335EEA" opacity="0.3"></path>
        <path d="M9,18 L15,18 L15,20.5 C15,21.3284271 14.3284271,22 13.5,22 L10.5,22 C9.67157288,22 9,21.3284271 9,20.5 L9,18 Z" id="Rectangle" fill="#335EEA" opacity="0.3"></path>
        <path d="M10.5,2 L13.5,2 C14.3284271,2 15,2.67157288 15,3.5 L15,6 L9,6 L9,3.5 C9,2.67157288 9.67157288,2 10.5,2 Z" id="Rectangle-Copy" fill="#335EEA" opacity="0.3"></path>
    </g>
</svg>

<svg width="24" height="24" viewBox="0 0 24 24" xmlns="http://www.w3.org/2000/svg"><g fill="none" fill-rule="evenodd"><path d="M0 0h24v24H0z"/><path d="M9 8a1 1 0 00-1 1v6a1 1 0 001 1h6a1 1 0 001-1V9a1 1 0 00-1-1H9zm0-2h6a3 3 0 013 3v6a3 3 0 01-3 3H9a3 3 0 01-3-3V9a3 3 0 013-3z" fill="#335EEA"/><path d="M9 8a1 1 0 00-1 1v6a1 1 0 001 1h6a1 1 0 001-1V9a1 1 0 00-1-1H9zM9 18h6v2.5a1.5 1.5 0 01-1.5 1.5h-3A1.5 1.5 0 019 20.5V18zM10.5 2h3A1.5 1.5 0 0115 3.5V6H9V3.5A1.5 1.5 0 0110.5 2z" fill="#335EEA" opacity=".3"/></g></svg>
